X:2553
T:Herbert The Sherbert
O:england
M:6/8
L:1/8
C:Martin Ellison / C part Clive Williams
R:Jig
K:G
E2E e2e|cBA B3|GBA GFE|FAG FED|E2E e2e|cBA B3|GBA GFE|AGF E3:|:
EFG F2F|EFG F3|e2f gfe|ded B2B|ded A2A|ded G2G|d2e dBG|A3 B3:|:
g2g f2f|efeB3|g2g f2f|efe _e3|g2g f2f|efe B3|1cBc cBc|cBc cBc||2cde dcB|
AGF E3||


